resources/lib/oojs-ui/themes/mediawiki/images/icons/citeArticle-ltr.svg

<?xml version="1.0" encoding="utf-8"?>
<svg xmlns="http://www.w3.org/2000/svg" width="24" height="24" viewBox="0 0 24 24">
    <g>
        <path d="M7 12h9v-1h-9v1zm0 2h9v-1h-9v1zm0 2h9v-1h-9v1zm4-9h-4v1h4v-1zm0 2h-4v1h4v-1zm0-4h-4v1h4v-1zm5-2h2v16h-10c-1.7 0-3-1.3-3-3v-13h8v7l1.5-2 1.5 2v-7z"/>
    </g>
</svg>

<?xml version="1.0" encoding="utf-8"?>
<svg xmlns="http://www.w3.org/2000/svg" width="24" height="24" viewBox="0 0 24 24">
    <g>
        <path d="M7 12h9v-1H7v1zm0 2h9v-1H7v1zm0 2h9v-1H7v1zm4-9H7v1h4V7zm0 2H7v1h4V9zm0-4H7v1h4V5zm5-2h2v16H8c-1.7 0-3-1.3-3-3V3h8v7l1.5-2 1.5 2V3z"/>
    </g>
</svg>
